X:105
T:Stone Mills Hornpipe
R:hornpipe
C:Bruce Osborne - Feb. 2002
Z:bosborne@kos.net
M:4/4
L:1/8
K:D
FG|AFDF AFDF|BAFB AFDF|EDEF GBAG|FEFG A2 FG|
AFDF AFDF|BAFB AFDF|EDEF GBAG|FDEC D2:|
|:FG|AFBF dFBF|dAFB AFDF|EDEF GECE|DCDE FEFG|
AFBF dFBF|dAFB AFDF|A,CEG FECE|DCFE D2:|
